src/Assets/Icons/BlogSingleScreen/quotationRight.svg

<svg width="46" height="40" viewBox="0 0 46 40" fill="none" xmlns="http://www.w3.org/2000/svg">
<g filter="url(#filter0_dd_561_6154)">
<path d="M21.5686 4.85714V20.5714C21.5686 22.119 21.2636 23.5997 20.6535 25.0134C20.0582 26.4122 19.2472 27.625 18.2204 28.6518C17.1936 29.6786 15.9734 30.497 14.5597 31.1071C13.1609 31.7024 11.6877 32 10.1401 32H8.7115C8.32459 32 7.98977 31.8586 7.70703 31.5759C7.42429 31.2932 7.28292 30.9583 7.28292 30.5714V27.7143C7.28292 27.3274 7.42429 26.9926 7.70703 26.7098C7.98977 26.4271 8.32459 26.2857 8.7115 26.2857H10.1401C11.7174 26.2857 13.0642 25.7277 14.1802 24.6116C15.2963 23.4955 15.8544 22.1488 15.8544 20.5714V19.8571C15.8544 19.2619 15.646 18.756 15.2294 18.3393C14.8127 17.9226 14.3067 17.7143 13.7115 17.7143H8.7115C7.52102 17.7143 6.50911 17.2976 5.67578 16.4643C4.84245 15.631 4.42578 14.619 4.42578 13.4286V4.85714C4.42578 3.66667 4.84245 2.65476 5.67578 1.82143C6.50911 0.988094 7.52102 0.571427 8.7115 0.571427H17.2829C18.4734 0.571427 19.4853 0.988094 20.3186 1.82143C21.152 2.65476 21.5686 3.66667 21.5686 4.85714ZM41.5686 4.85714V20.5714C41.5686 22.119 41.2636 23.5997 40.6535 25.0134C40.0582 26.4122 39.2472 27.625 38.2204 28.6518C37.1936 29.6786 35.9734 30.497 34.5597 31.1071C33.1609 31.7024 31.6877 32 30.1401 32H28.7115C28.3246 32 27.9898 31.8586 27.707 31.5759C27.4243 31.2932 27.2829 30.9583 27.2829 30.5714V27.7143C27.2829 27.3274 27.4243 26.9926 27.707 26.7098C27.9898 26.4271 28.3246 26.2857 28.7115 26.2857H30.1401C31.7174 26.2857 33.0642 25.7277 34.1802 24.6116C35.2963 23.4955 35.8544 22.1488 35.8544 20.5714V19.8571C35.8544 19.2619 35.646 18.756 35.2294 18.3393C34.8127 17.9226 34.3067 17.7143 33.7115 17.7143H28.7115C27.521 17.7143 26.5091 17.2976 25.6758 16.4643C24.8424 15.631 24.4258 14.619 24.4258 13.4286V4.85714C24.4258 3.66667 24.8424 2.65476 25.6758 1.82143C26.5091 0.988094 27.521 0.571427 28.7115 0.571427H37.2829C38.4734 0.571427 39.4853 0.988094 40.3186 1.82143C41.152 2.65476 41.5686 3.66667 41.5686 4.85714Z" fill="#DDE7FD"/>
</g>
<defs>
<filter id="filter0_dd_561_6154" x="0.425781" y="0.571289" width="45.1426" height="39.4287" filterUnits="userSpaceOnUse" color-interpolation-filters="sRGB">
<feFlood flood-opacity="0" result="BackgroundImageFix"/>
<feColorMatrix in="SourceAlpha" type="matrix" values="0 0 0 0 0 0 0 0 0 0 0 0 0 0 0 0 0 0 127 0" result="hardAlpha"/>
<feOffset dy="4"/>
<feGaussianBlur stdDeviation="2"/>
<feComposite in2="hardAlpha" operator="out"/>
<feColorMatrix type="matrix" values="0 0 0 0 0 0 0 0 0 0 0 0 0 0 0 0 0 0 0.25 0"/>
<feBlend mode="normal" in2="BackgroundImageFix" result="effect1_dropShadow_561_6154"/>
<feColorMatrix in="SourceAlpha" type="matrix" values="0 0 0 0 0 0 0 0 0 0 0 0 0 0 0 0 0 0 127 0" result="hardAlpha"/>
<feOffset dy="4"/>
<feGaussianBlur stdDeviation="2"/>
<feComposite in2="hardAlpha" operator="out"/>
<feColorMatrix type="matrix" values="0 0 0 0 0 0 0 0 0 0 0 0 0 0 0 0 0 0 0.25 0"/>
<feBlend mode="normal" in2="effect1_dropShadow_561_6154" result="effect2_dropShadow_561_6154"/>
<feBlend mode="normal" in="SourceGraphic" in2="effect2_dropShadow_561_6154" result="shape"/>
</filter>
</defs>
</svg>

<svg xmlns="http://www.w3.org/2000/svg" width="46" height="40" fill="none"><g filter="url(#a)"><path fill="#DDE7FD" d="M21.569 4.857v15.714q0 2.322-.915 4.442a11.4 11.4 0 0 1-2.434 3.639q-1.54 1.54-3.66 2.455a11.2 11.2 0 0 1-4.42.893H8.711q-.58 0-1.004-.424a1.37 1.37 0 0 1-.424-1.005v-2.857q0-.58.424-1.004a1.37 1.37 0 0 1 1.004-.424h1.43q2.364 0 4.04-1.674 1.673-1.674 1.673-4.04v-.715q0-.893-.625-1.518a2.07 2.07 0 0 0-1.517-.625h-5q-1.786 0-3.036-1.25t-1.25-3.035V4.857q0-1.785 1.25-3.036Q6.926.571 8.71.571h8.572q1.785 0 3.036 1.25 1.25 1.251 1.25 3.036m20 0v15.714q0 2.322-.916 4.442a11.4 11.4 0 0 1-2.433 3.639q-1.54 1.54-3.66 2.455a11.2 11.2 0 0 1-4.42.893h-1.428q-.58 0-1.005-.424a1.37 1.37 0 0 1-.424-1.005v-2.857q0-.58.424-1.004a1.37 1.37 0 0 1 1.005-.424h1.428q2.366 0 4.04-1.674t1.674-4.04v-.715q0-.893-.625-1.518a2.07 2.07 0 0 0-1.517-.625h-5q-1.786 0-3.036-1.25t-1.25-3.035V4.857q0-1.785 1.25-3.036 1.25-1.25 3.036-1.25h8.57q1.786 0 3.037 1.25t1.25 3.036"/></g><defs><filter id="a" width="45.143" height="39.429" x=".426" y=".571" color-interpolation-filters="sRGB" filterUnits="userSpaceOnUse"><feFlood flood-opacity="0" result="BackgroundImageFix"/><feColorMatrix in="SourceAlpha" result="hardAlpha" values="0 0 0 0 0 0 0 0 0 0 0 0 0 0 0 0 0 0 127 0"/><feOffset dy="4"/><feGaussianBlur stdDeviation="2"/><feComposite in2="hardAlpha" operator="out"/><feColorMatrix values="0 0 0 0 0 0 0 0 0 0 0 0 0 0 0 0 0 0 0.25 0"/><feBlend in2="BackgroundImageFix" result="effect1_dropShadow_561_6154"/><feColorMatrix in="SourceAlpha" result="hardAlpha" values="0 0 0 0 0 0 0 0 0 0 0 0 0 0 0 0 0 0 127 0"/><feOffset dy="4"/><feGaussianBlur stdDeviation="2"/><feComposite in2="hardAlpha" operator="out"/><feColorMatrix values="0 0 0 0 0 0 0 0 0 0 0 0 0 0 0 0 0 0 0.25 0"/><feBlend in2="effect1_dropShadow_561_6154" result="effect2_dropShadow_561_6154"/><feBlend in="SourceGraphic" in2="effect2_dropShadow_561_6154" result="shape"/></filter></defs></svg>
